X:33
T:Cunla
M:6/8
R:jig
C:Traditional
K:D
AFD DFA | AFd BAG | A2A A2G | F2F GED |
AFD DFA | AFd BAG | A2A GFA |[1 D2D D2A :|[2 D2D D3 |]
|: d2e f2d | efe cAG | A2A A2G | FFF GED |
d2e f2d | efe cAG | A2A GFA | DDD D3 :|
K:Dmix
|:DDD c3 | BcB AFD | Add ded | ded cAF |
DDD c3 | BcB AFD | AAA GFA | DDD D3 :|

%%newpage
%%scale .75
%%staffsep 35

